X:2679
T:Carolan's Concerto
T:Mrs. Power
R:planxty
C:Turlough Carolan
M:C
L:1/8
K:D
|d2dd d2cB|ABGA F2A2|E2A2 D2A2|Bcde dcBA|
d2a2 fgaf|efge fgaf|gabg fdfa|gfed dcBA|
(3Bcd Bd gBgB|AdAd fAfA|GBGB efed|c2Bc A3G|
FGAF EFGE|FGAF GABG|A2d2 fedc|1 d4 d3:|2 d4 d3A|
|:d2b2 agfe|d2a2 c2a2|B2g2 ABcd|ecBA d3f|
edcB caaa|Bggg Afff|edcB caaa|Bggg bgbg|
afaf edcB|cABG AFGE|DAFA DAFA|(3GFE BE  (3GFE BA|
FAdc BAGF|EFGA BcdB|A2d2 fedc|d4 d4:|]


